content/pages/about/coletiv-logo.svg

<svg width="105" height="32" xmlns="http://www.w3.org/2000/svg"><g fill="#FFF" fill-rule="nonzero"><path d="M16 21.96c-3.696 0-6.508-2.83-6.508-6.48 0-3.702 2.812-6.55 6.612-6.55 2.16 0 3.647.634 4.985 1.942l.105.104c.04.04.043.103.006.146l-1.908 2.186a.105.105 0 0 1-.15.01l-.123-.11c-.98-.883-1.872-1.296-2.934-1.296-1.86 0-3.262 1.527-3.262 3.5 0 2.027 1.386 3.567 3.262 3.567 1.172 0 1.942-.375 3.02-1.348l.114-.103a.104.104 0 0 1 .146.003l1.92 1.926c.04.04.04.105.002.147l-.105.11c-1.45 1.54-2.95 2.243-5.184 2.243l.002.003zm13.464 0c-3.836 0-6.716-2.833-6.716-6.48 0-3.682 2.914-6.55 6.75-6.55s6.716 2.834 6.716 6.48c0 3.682-2.915 6.55-6.75 6.55zm.034-2.716c2.156 0 3.65-1.692 3.65-3.764v-.035c0-2.07-1.53-3.798-3.684-3.798-2.156 0-3.65 1.692-3.65 3.764v.035c0 2.072 1.53 3.8 3.684 3.8v-.002zm18.588-.332v2.735a.106.106 0 0 1-.106.106h-9.065a.107.107 0 0 1-.106-.106V9.244c0-.058.047-.106.105-.106h2.998c.06 0 .106.048.106.106v9.51c0 .028.023.052.052.052h5.908c.06 0 .106.048.106.106h.002zm6.01-4.957h5.577c.058 0 .106.047.106.106v2.684c0 .058-.05.106-.107.106h-5.578a.052.052 0 0 0-.053.053v1.902c0 .03.024.053.053.053h6.447c.058 0 .106.047.106.106v2.683a.107.107 0 0 1-.106.106h-9.587a.107.107 0 0 1-.106-.106V9.244c0-.058.047-.106.105-.106h9.5c.058 0 .106.048.106.106v2.683a.106.106 0 0 1-.105.106h-6.36a.053.053 0 0 0-.053.053v1.816c0 .03.024.053.053.053h.002zm9.024-1.942v-2.77c0-.057.048-.105.106-.105H73.63c.058 0 .106.048.106.106v2.77a.106.106 0 0 1-.106.105h-3.544a.052.052 0 0 0-.053.052v9.475a.106.106 0 0 1-.106.106H66.93a.106.106 0 0 1-.107-.106v-9.475a.053.053 0 0 0-.053-.053h-3.544a.107.107 0 0 1-.106-.107v.002zm16.746 9.74h-2.998a.105.105 0 0 1-.106-.106V9.244c0-.058.047-.106.106-.106h2.998c.06 0 .106.048.106.106v12.403a.106.106 0 0 1-.106.106zm9.305-4.733l2.92-7.813a.11.11 0 0 1 .1-.07h3.235a.108.108 0 0 1 .099.147l-5.048 12.49a.105.105 0 0 1-.098.065h-2.582a.106.106 0 0 1-.098-.067l-5.048-12.49a.104.104 0 0 1 .058-.137.106.106 0 0 1 .04-.008h3.304c.044 0 .083.028.1.07l2.92 7.812a.05.05 0 0 0 .068.03.045.045 0 0 0 .03-.03v.001z"/><path d="M3.2 3.231v25.475c0 .028.023.052.053.052h98.494c.03 0 .053-.024.053-.053V3.23a.052.052 0 0 0-.053-.053H3.253a.052.052 0 0 0-.053.053v.001zM.106.001h104.788c.058 0 .106.047.106.105v31.723c0 .06-.048.106-.106.106H.106A.107.107 0 0 1 0 31.828V.106C0 .048.048 0 .106 0v.001z"/></g></svg>

<?xml version="1.0" encoding="UTF-8"?>
<svg width="105px" height="32px" viewBox="0 0 105 32" version="1.1" xmlns="http://www.w3.org/2000/svg" xmlns:xlink="http://www.w3.org/1999/xlink">
    <!-- Generator: Sketch 52.6 (67491) - http://www.bohemiancoding.com/sketch -->
    <title>Coletiv Studio-13</title>
    <desc>Created with Sketch.</desc>
    <g id="✔--About" stroke="none" stroke-width="1" fill="none" fill-rule="evenodd">
        <g id="About" transform="translate(-333.000000, -5074.000000)" fill="#FFFFFF" fill-rule="nonzero">
            <g id="Network" transform="translate(301.000000, 4842.000000)">
                <g id="Coletiv" transform="translate(0.000000, 192.000000)">
                    <g id="Content" transform="translate(32.000000, 40.000000)">
                        <g id="Coletiv-Studio-13">
                            <path d="M16,21.96 C12.304,21.96 9.492,19.13 9.492,15.48 C9.492,11.778 12.304,8.93 16.104,8.93 C18.264,8.93 19.751,9.564 21.089,10.872 L21.194,10.976 C21.234,11.016 21.237,11.079 21.2,11.122 L19.292,13.308 C19.252,13.352 19.186,13.358 19.142,13.318 L19.019,13.208 C18.039,12.325 17.147,11.912 16.085,11.912 C14.225,11.912 12.823,13.439 12.823,15.412 C12.823,17.439 14.209,18.979 16.085,18.979 C17.257,18.979 18.027,18.604 19.105,17.631 L19.219,17.528 C19.261,17.488 19.325,17.491 19.365,17.531 L21.285,19.457 C21.325,19.497 21.325,19.562 21.287,19.604 L21.182,19.714 C19.732,21.254 18.232,21.957 15.998,21.957 L16,21.96 Z M29.464,21.96 C25.628,21.96 22.748,19.127 22.748,15.48 C22.748,11.798 25.662,8.93 29.498,8.93 C33.334,8.93 36.214,11.764 36.214,15.41 C36.214,19.092 33.299,21.96 29.464,21.96 Z M29.498,19.244 C31.654,19.244 33.148,17.552 33.148,15.48 L33.148,15.445 C33.148,13.375 31.618,11.647 29.464,11.647 C27.308,11.647 25.814,13.339 25.814,15.411 L25.814,15.446 C25.814,17.518 27.344,19.246 29.498,19.246 L29.498,19.244 Z M48.086,18.912 L48.086,21.647 C48.086,21.705 48.039,21.753 47.98,21.753 L38.915,21.753 C38.857,21.753 38.809,21.705 38.809,21.647 L38.809,9.244 C38.809,9.186 38.856,9.138 38.914,9.138 L41.912,9.138 C41.972,9.138 42.018,9.186 42.018,9.244 L42.018,18.754 C42.018,18.782 42.041,18.806 42.07,18.806 L47.978,18.806 C48.038,18.806 48.084,18.854 48.084,18.912 L48.086,18.912 Z M54.096,13.955 L59.673,13.955 C59.731,13.955 59.779,14.002 59.779,14.061 L59.779,16.745 C59.779,16.803 59.729,16.851 59.672,16.851 L54.094,16.851 C54.064,16.851 54.041,16.874 54.041,16.904 L54.041,18.806 C54.041,18.836 54.065,18.859 54.094,18.859 L60.541,18.859 C60.599,18.859 60.647,18.906 60.647,18.965 L60.647,21.648 C60.647,21.706 60.599,21.754 60.541,21.754 L50.954,21.754 C50.896,21.754 50.848,21.706 50.848,21.648 L50.848,9.244 C50.848,9.186 50.895,9.138 50.953,9.138 L60.453,9.138 C60.511,9.138 60.559,9.186 60.559,9.244 L60.559,11.927 C60.559,11.985 60.512,12.033 60.454,12.033 L54.094,12.033 C54.064,12.033 54.041,12.057 54.041,12.086 L54.041,13.902 C54.041,13.932 54.065,13.955 54.094,13.955 L54.096,13.955 Z M63.12,12.013 L63.12,9.243 C63.12,9.186 63.168,9.138 63.226,9.138 L73.63,9.138 C73.688,9.138 73.736,9.186 73.736,9.244 L73.736,12.014 C73.736,12.072 73.688,12.119 73.63,12.119 L70.086,12.119 C70.056,12.119 70.033,12.142 70.033,12.171 L70.033,21.646 C70.033,21.704 69.986,21.752 69.927,21.752 L66.93,21.752 C66.87,21.752 66.823,21.704 66.823,21.646 L66.823,12.171 C66.823,12.141 66.799,12.118 66.77,12.118 L63.226,12.118 C63.168,12.118 63.12,12.07 63.12,12.011 L63.12,12.013 Z M79.866,21.753 L76.868,21.753 C76.808,21.753 76.762,21.705 76.762,21.647 L76.762,9.244 C76.762,9.186 76.809,9.138 76.868,9.138 L79.866,9.138 C79.926,9.138 79.972,9.186 79.972,9.244 L79.972,21.647 C79.972,21.705 79.925,21.753 79.866,21.753 Z M89.171,17.02 L92.091,9.207 C92.107,9.167 92.147,9.137 92.191,9.137 L95.426,9.137 C95.484,9.137 95.532,9.187 95.532,9.244 C95.532,9.258 95.53,9.271 95.525,9.284 L90.477,21.774 C90.461,21.814 90.422,21.839 90.379,21.839 L87.797,21.839 C87.754,21.839 87.715,21.812 87.699,21.772 L82.651,9.282 C82.628,9.229 82.655,9.167 82.709,9.145 C82.721,9.14 82.735,9.137 82.749,9.137 L86.053,9.137 C86.097,9.137 86.136,9.165 86.153,9.207 L89.073,17.019 C89.083,17.047 89.113,17.061 89.141,17.049 C89.155,17.045 89.166,17.034 89.171,17.019 L89.171,17.02 Z" id="Shape"></path>
                            <path d="M3.2,3.231 L3.2,28.706 C3.2,28.734 3.223,28.758 3.253,28.758 L101.747,28.758 C101.777,28.758 101.8,28.734 101.8,28.705 L101.8,3.23 C101.8,3.2 101.777,3.177 101.747,3.177 L3.253,3.177 C3.223,3.177 3.2,3.2 3.2,3.23 L3.2,3.231 Z M0.106,0.001 L104.894,0.001 C104.952,0.001 105,0.048 105,0.106 L105,31.829 C105,31.889 104.952,31.935 104.894,31.935 L0.106,31.935 C0.048,31.935 0,31.887 0,31.828 L0,0.106 C0,0.048 0.048,0 0.106,0 L0.106,0.001 Z" id="Shape"></path>
                        </g>
                    </g>
                </g>
            </g>
        </g>
    </g>
</svg>
